X:1156
L:1/8
M:3/4
K:G
 ef |{ef} g2 fedc |{c} B3 c d2 |{cd} e2 G2 G2 | TG4 cB |{B} A4 B c2 | de f2 e2 | fagedc | d4 Bc | 
 d2 Td3 e/^f/ | g2 d2 e2 |{e} d2 cB AG | A4 Bc |{Bc} d2 cBAG | g2 G2 G2 | AedBcA | G4 Bd | 
 g2 fe de/f/ | edcdef | gfedc_B |{_B} A4 fg | afdagf | ge c2 G2 | AfedcB | c4 ||

